src/actions/22/stroke-cap-butt.svg

<svg viewBox="0 0 22 22" xmlns="http://www.w3.org/2000/svg">
 <defs>
  <style type="text/css">.ColorScheme-Text {
        color:#2e3440;
      }</style>
 </defs>
 <path class="ColorScheme-Text" d="m9 4v1h-2-1v1 13h1 3v-1-13h2v14h1 3v-1-13h-3v-1h-4zm-2 2h2v12h-2v-12zm6 0h2v12h-2v-12z" fill="currentColor"/>
</svg>

<svg xmlns="http://www.w3.org/2000/svg" viewBox="0 0 22 22">
  <defs id="defs3051">
    <style type="text/css" id="current-color-scheme">
      .ColorScheme-Text {
        color:#2e3440;
      }
      </style>
  </defs>
 <path 
     style="fill:currentColor;fill-opacity:1;stroke:none" 
     d="M 9 4 L 9 5 L 7 5 L 6 5 L 6 6 L 6 19 L 7 19 L 10 19 L 10 18 L 10 5 L 12 5 L 12 19 L 13 19 L 16 19 L 16 18 L 16 5 L 13 5 L 13 4 L 9 4 z M 7 6 L 9 6 L 9 18 L 7 18 L 7 6 z M 13 6 L 15 6 L 15 18 L 13 18 L 13 6 z "
	 class="ColorScheme-Text"
     />
</svg>
